icons/core/filter.svg

<svg width="32" height="32" viewBox="0 0 32 32" xmlns="http://www.w3.org/2000/svg"><path d="M5 5V4H4V5H5ZM27 5H28V4H27V5ZM27 10L27.7071 10.7071L28 10.4142V10H27ZM19 18L18.2929 17.2929L18 17.5858V18H19ZM19 25L19.5039 25.8638L20 25.5744V25H19ZM13 28.5H12L13.5039 29.3638L13 28.5ZM13 18H14V17.5858L13.7071 17.2929L13 18ZM5 10H4V10.4142L4.29289 10.7071L5 10ZM5 6H27V4H5V6ZM26 5V10H28V5H26ZM26.2929 9.29289L18.2929 17.2929L19.7071 18.7071L27.7071 10.7071L26.2929 9.29289ZM18 18V25H20V18H18ZM18.4961 24.1362L12.4961 27.6362L13.5039 29.3638L19.5039 25.8638L18.4961 24.1362ZM14 28.5V18H12V28.5H14ZM13.7071 17.2929L5.70711 9.29289L4.29289 10.7071L12.2929 18.7071L13.7071 17.2929ZM6 10V5H4V10H6Z"/></svg>

<svg viewBox="0 0 32 32" xmlns="http://www.w3.org/2000/svg"><path d="M5 5V4H4v1h1zm22 0h1V4h-1v1zm0 5l.707.707.293-.293V10h-1zm-8 8l-.707-.707-.293.293V18h1zm0 7l.504.864.496-.29V25h-1zm-6 3.5h-1l1.504.864L13 28.5zM13 18h1v-.414l-.293-.293L13 18zm-8-8H4v.414l.293.293L5 10zm0-4h22V4H5v2zm21-1v5h2V5h-2zm.293 4.293l-8 8 1.414 1.414 8-8-1.414-1.414zM18 18v7h2v-7h-2zm.496 6.136l-6 3.5 1.008 1.728 6-3.5-1.008-1.728zM14 28.5V18h-2v10.5h2zm-.293-11.207l-8-8-1.414 1.414 8 8 1.414-1.414zM6 10V5H4v5h2z"/></svg>
